!!!!SEGMENT: pl-kk--kk-i-385--004_anonim--tractus.krn
!!!cenid: 17xx:1984
!!!COM: Anonim
!!!COM-rismID: pe30004985
!!!CDT:
!!!CNT:
!!!OTL: Tractus
!!!PDT:
!!!AGN: Sacred
!!!SMS-siglum: PL-Kk
!!!SMS-shelfmark: Kk.I.385
!!!SMS-shelfwork: 004 W
!!!SMS-variant:
!!!SMS-altvar:
!!!NIFC-rismSourceID: 1001143381
!!!NIFC-rismChildID: 1001143565
!!!NIFC-islandoraID: pl-kk:6917
!!!URL-pdf-islandora: https://repozytorium.nifc.pl/islandora/object/pl-kk%3A6917/datastream/PDF/view
!!!URL-scan: https://polish.musicsources.pl/pl/lokalizacje/galeria/rekopisy/5997 @EN{Scan on Polish Music Sources Website} @PL{Skany w portalu Dziedzictwo Muzyki Polskiej w otwartym dostępie}
!!!IIIF:
!!!ONB-nifc: UWAGA: numeracja zgodna z numeracją utworów w źródle
!!!AIN: 1 alto 1 soprn 1 tenor
!!!key:
**kern	**text	**kern	**text	**kern	**text
*part3	*part3	*part2	*part2	*part1	*part1
*staff3	*staff3	*staff2	*staff2	*staff1	*staff1
*Itenor	*	*Ialto	*	*Isoprn	*
*I"Tenore.	*	*I"Alto.	*	*I"Soprano.	*
*I'T	*	*I'A	*	*I'S	*
*clefC4	*	*clefC3	*	*clefC1	*
*k[b-]	*	*k[b-]	*	*k[b-]	*
*F:	*	*F:	*	*F:	*
*M2/2	*	*M2/2	*	*M2/2	*
*met(c|)	*	*met(c|)	*	*met(c|)	*
=1	=1	=1	=1	=1	=1
*all\right	*	*all\right	*	*all\right	*
*2\right	*	*2\right	*	*2\right	*
!LO:TX:a:t=2	!	!	!	!	!
!LO:TX:a:t=4tum	!	!LO:TX:a:t=4.tum	!	!LO:TX:a:t=4timo	!
!LO:TX:a:t=Tractus.	!	!LO:TX:a:t=Tractus	!	!LO:TX:a:t=Tractus.	!
0r	.	00r	.	1f	Gau-
=2	=2	=2	=2	=2	=2
.	.	.	.	2a\	-de
.	.	.	.	2b-\	Ma-
=3	=3	=3	=3	=3	=3
1F	Gau-	.	.	2cc\	-ri-
.	.	.	.	2cc\	-a
=4	=4	=4	=4	=4	=4
2A\	-de	.	.	2cc\	Ma-
2B-\	Ma-	.	.	4b-\	.
.	.	.	.	4a\	.
=5	=5	=5	=5	=5	=5
2c\	-ri-	0r	.	2g\	-ri-
2c\	-a	.	.	2cc\	-a
=6	=6	=6	=6	=6	=6
1B-	vir-	.	.	2f/	vir-
.	.	.	.	4g\	-go
.	.	.	.	4g\	ma-
!	!	!	!	!LO:LB:g=original	!
=7	=7	=7	=7	=7	=7
2A\	-go	1c	Gau-	2a\	-ri-
2A\	Ma-	.	.	2a\	-a
=8	=8	=8	=8	=8	=8
4G/	-ri-	2d\	-de	2b-\	vir-
4G/	-a	.	.	.	.
[2c\	vir-	2e\	Ma-	2g\	.
!LO:LB:g=original	!	!	!	!	!
=9	=9	=9	=9	=9	=9
!LO:TX:a:t=P:problem=brak zakończenia ligatury	!	!	!	!	!
2c\]	.	4f\	-ri-	1f	-go
.	.	4f\	-a	.	.
2Bn\	.	[2f\	vir-	.	.
=10	=10	=10	=10	=10	=10
1c	-go	2f\]	.	2r	.
.	.	2e\	.	2cc\	cun-
=11	=11	=11	=11	=11	=11
!LO:TX:a:t=1.	!	!	!	!	!
1r	.	1d	.	2.dd\	.
.	.	.	.	4ee\	.
=12	=12	=12	=12	=12	=12
2c\	cun-	2c\	-go	2ff\	.
2c\	-ctas	[2f\	vir-	2f/	-ctas
!	!	!LO:LB:g=original	!	!	!
=13	=13	=13	=13	=13	=13
!	!LO:MO:mod=hae-	!LO:TX:a:t=P:problem=brak zakończenia ligatury	!	!	!LO:MO:mod=hae-
2B-X\	he-	2f\]	.	2b-\	he-
2G/	.	2e\	.	2b-\	-re-
=14	=14	=14	=14	=14	=14
2.A\	.	1f	-go	1a	-ses
4B-\	-re-	.	.	.	.
!	!	!	!	!LO:LB:g=original	!
=15	=15	=15	=15	=15	=15
!	!	!LO:TX:a:t=3	!	!	!
2c\	-ses	0r	.	1r	.
2c\	so-	.	.	.	.
=16	=16	=16	=16	=16	=16
2e\	-la	.	.	2cc\	so-
2e\	in-	.	.	2cc\	-la
!LO:LB:g=original	!	!	!	!	!
=17	=17	=17	=17	=17	=17
2f\	-te-	1r	.	2b-\	in-
2c\	-re-	.	.	2g\	-ter-
=18	=18	=18	=18	=18	=18
1F	-mi-	2f\	so-	2a\	.
.	.	2f\	-la	2bn\	-re-
=19	=19	=19	=19	=19	=19
2c\	-sti	2e\	in-	1cc	-mi-
2c\	so-	2c\	-te-	.	.
=20	=20	=20	=20	=20	=20
2B-\	-la	2d\	.	2f/	sti
2G/	in-	2e\	-re-	2b-\	so-
=21	=21	=21	=21	=21	=21
4F/	-te-	4f\	-mi-	2a\	-la
4G/	.	4c\	.	.	.
4A\	.	[2f\	.	2a\	in-
4B-\	.	.	.	.	.
=22	=22	=22	=22	=22	=22
2c\	.	2f\]	.	2g\	-te-
!	!	!LO:LB:g=original	!	!	!
2c\	-re-	2e\	.	[2g\	-re-
!	!	!	!	!LO:LB:g=original	!
=23	=23	=23	=23	=23	=23
!	!	!	!	!LO:TX:a:t=P:problem=brak zakończenia ligatury	!
2Bn\	-mi-	2d\	.	2g\]	.
2c\	.	2e\	.	[2cc\	-mi-
!LO:LB:g=original	!	!	!	!	!
=24	=24	=24	=24	=24	=24
1G	.	1d	.	2cc\]	.
.	.	.	.	2bn\	.
=25	=25	=25	=25	=25	=25
1C	-sti	1e	-sti	2cc\	-sti
!	!	!	!	!	!LO:MO:mod=quae
.	.	.	.	2g\	que
=26	=26	=26	=26	=26	=26
1r	.	2r	.	2g\	Ga-
!	!	!	!LO:MO:mod=quae	!	!
.	.	2c\	que	2g\	-bri-
=27	=27	=27	=27	=27	=27
2r	.	2c\	Ga-	1a	-e-
!	!LO:MO:mod=Quae	!	!	!	!
2F/	Que	2c\	-bri-	.	.
=28	=28	=28	=28	=28	=28
2F/	Ga-	1f	-e-	2a\	-lis
2F/	-bri-	.	.	2a\	Ar-
=29	=29	=29	=29	=29	=29
!	!	!	!	!	!LO:MO:mod=-chan-
2B-\	-e-	2d\	-lis	2.b-\	-han-
4B-\	-lis	2d\	Ar-	.	.
4B-\	Ar-	.	.	4b-\	-ge-
=30	=30	=30	=30	=30	=30
!	!LO:MO:mod=-chan-	!	!LO:MO:mod=-chan-	!	!
4G/	-han-	2.g\	-han-	2cc\	-li
4G/	-ge-	.	.	.	.
!	!	!	!	!LO:LB:g=original	!
2G/	-li	.	.	2cc\	dic-
.	.	4g\	-ge-	.	.
!	!	!LO:LB:g=original	!	!	!
=31	=31	=31	=31	=31	=31
2c\	dic-	2e\	-li	2cc\	-tis
2A\	-tis	[y2a\	dic-	4cc\	cre-
.	.	.	.	4b-\	.
!LO:LB:g=original	!	!	!	!	!
=32	=32	=32	=32	=32	=32
!	!	!LO:N:xstem:cue	!	!	!
2d\	cre-	4a\]	.	2a\	.
.	.	4a\	.	.	.
2d\	-di-	4g\	.	2b-\	-di-
.	.	4f\	-tis	.	.
=33	=33	=33	=33	=33	=33
2c#X\	-di-	2e\	cre-	1a	-dis-
[2d\	.	2f\	-di-	.	.
=34	=34	=34	=34	=34	=34
2d\]	.	1e	-di-	2a\	-ti
2c#X\	.	.	.	2a\	dum
=35	=35	=35	=35	=35	=35
1d	-sti	1f	-sti	2a\	vir-
.	.	.	.	2a\	-go
=36	=36	=36	=36	=36	=36
2A\	dum	2r	.	2.dd\	De-
2A\	vir-	2d\	dum	.	.
.	.	.	.	4cc\	.
=37	=37	=37	=37	=37	=37
2B-\	-go	2d\	vir-	4b-\	-um
.	.	.	.	4b-\	et
!	!	!	!	!LO:LB:g=original	!
2B-\	De-	2d\	-go	2g\	ho-
=38	=38	=38	=38	=38	=38
2c\	-um	2.g\	De-	2g\	.
2c\	et	.	.	2cc\	-mi-
.	.	4f\	-um	.	.
!	!	!LO:LB:g=original	!	!	!
=39	=39	=39	=39	=39	=39
2G/	ho-	2e-X\	et	2cc\	-nem
!LO:LB:g=original	!	!	!	!	!
[2c\	.	2c\	.	2r	.
=40	=40	=40	=40	=40	=40
2c\]	.	2.g\	ho-	2r	.
2B-\	-mi-	.	.	[2b-\	et
.	.	4g\	-mi-	.	.
=41	=41	=41	=41	=41	=41
2B-\	-nem	1g	-nem	2b-\]	.
2B-\	ge-	.	.	[2g\	ho-
=42	=42	=42	=42	=42	=42
2A\	.	2g\	.	2g\]	.
[2A\	-nu-	2e-X\	ge-	[y2cc\	.
=43	=43	=43	=43	=43	=43
!	!	!	!	!LO:N:xstem:cue	!
2A\]	-i-	4e-X\	.	4cc\]	.
.	.	4e-\	-nu-	4b-\	.
2A\	-sti	[2g\	-i-	2a\	-mi-
=44	=44	=44	=44	=44	=44
2r	.	2g\]	.	1a	-nem
[2d\	ge-	2f#X\	.	.	.
!	!	!	!	!LO:LB:g=original	!
=45	=45	=45	=45	=45	=45
2d\]	.	1g	-sti	2g\	ge-
[2B-\	.	.	.	2g\	-nu-
=46	=46	=46	=46	=46	=46
2B-\]	.	2r	.	2.g\	-i-
2B-\	-nu-	[2g\	ge-	.	.
.	.	.	.	4a\	.
!LO:LB:g=original	!	!LO:LB:g=original	!	!	!
=47	=47	=47	=47	=47	=47
!	!	!LO:TX:a:t=P:problem=brak zakończenia ligatury	!	!	!
2.e-X\	-i-	2g\]	.	[y1b-	.
.	.	2g\	-nu-	.	.
4d\	.	.	.	.	.
=48	=48	=48	=48	=48	=48
!	!	!	!	!LO:N:xstem:cue:vis=4	!
1c	.	1fn	-i-	2b-\]	.
.	.	.	.	2a\	.
=49	=49	=49	=49	=49	=49
0d	-sti	0f	-sti	0b-	-sti
=50||	=50||	=50||	=50||	=50||	=50||
*M3/2	*	*M3/2	*	*M3/2	*
1d	et	1f	et	1.r	.
2c\	post	2f\	post	.	.
=51	=51	=51	=51	=51	=51
1d	par-	1f	par-	1b-	et
2c\	-tum	2f\	-tum	2a\	post
=52	=52	=52	=52	=52	=52
2B-\	et	1d	et	1b-	par-
2F/	.	.	.	.	.
2G/	.	2e\	post	2b-\	-tum
!	!	!	!	!LO:LB:g=original	!
=53	=53	=53	=53	=53	=53
1c	.	1f	par-	1a	vir-
2c\	post	2f\	-tum	2a\	-go
!LO:LB:g=original	!	!LO:LB:g=original	!	!	!
=54	=54	=54	=54	=54	=54
1A	par-	1.r	.	2cc\	in-
.	.	.	.	2cc\	-vi-
2G/	-tum	.	.	2cc\	-o-
=55	=55	=55	=55	=55	=55
2A\	vir-	1f	vir-	2cc\	-la-
2A\	-go	.	.	2cc\	-ta
2G/	in-	2e\	-go	2cc\	vir-
=56	=56	=56	=56	=56	=56
1A	-vi-	2f\	in-	1cc	.
.	.	2f\	-vi-	.	.
2F/	-o-	2f\	-o-	2bn\	.
=57	=57	=57	=57	=57	=57
2c\	-la-	2e\	-la-	1cc	-go
2G/	.	2e\	-ta	.	.
2G/	-ta	2e\	per-	2cc\	per-
=58	=58	=58	=58	=58	=58
2c\	per-	1.f	-man-	2cc\	.
2d\	.	.	.	2b-X\	.
2c\	-man-	.	.	2a\	-man-
!	!	!	!	!LO:LB:g=original	!
=59	=59	=59	=59	=59	=59
1.c	-si-	1f	-si-	1.g	-si-
.	.	2e\	.	.	.
!LO:LB:g=original	!	!	!	!	!
=60	=60	=60	=60	=60	=60
2A\	-sti	1f	-sti	2a\	-sti
2A\	De-	.	.	2a\	De-
2A\	-i	2r	.	2a\	-i
!	!	!LO:LB:g=original	!	!	!
=61	=61	=61	=61	=61	=61
!	!	!LO:TX:a:t=1	!	!	!
1Bn	ge-	1.r	.	1.g	ge-
2B\	.	.	.	.	.
=62	=62	=62	=62	=62	=62
1A	.	2r	.	1a	.
.	.	2f\	De-	.	.
2Bn\	-ni-	2f\	-i	2f/	.
=63	=63	=63	=63	=63	=63
2c\	-trix	2.f\	ge-	2.g\	.
2c\	De-	.	.	.	.
.	.	4e\	-ni-	4g\	-ni-
2c\	-i	2e\	-trix	2g\	-trix
=64	=64	=64	=64	=64	=64
2.c\	ge-	1f	in-	1a	in-
4c\	-ni-	.	.	.	.
2Bn\	-trix	2d\	-ter-	2g\	-ter-
=65	=65	=65	=65	=65	=65
1c	in-	2e\	-ce-	1g	-ce-
.	.	2e\	-de	.	.
2Bn\	-ter-	2r	.	2g\	-de
!LO:LB:g=original	!	!	!	!LO:LB:g=original	!
=66	=66	=66	=66	=66	=66
1c	-ce-	1.r	.	2a\	pro
.	.	.	.	2bn\	.
2c\	-de	.	.	2cc\	.
!	!	!LO:LB:g=original	!	!	!
=67	=67	=67	=67	=67	=67
!LO:TX:a:t=2	!	!	!	!	!
!LO:N:vis=0	!	!	!	!	!
0.r	.	2r	.	2cc\	no-
.	.	2f\	in-	2cc\	.
.	.	2f\	-ter-	2bn\	.
=68	=68	=68	=68	=68	=68
.	.	2e\	-ce-	2cc\	-bis
.	.	2c\	-de	2a\	in-
.	.	2g\	pro	2g\	-ter-
=69	=69	=69	=69	=69	=69
2r	.	2f\	no-	2a\	-ce-
2c\	in-	2e\	-bis	2g\	.
2c\	-ter-	2f\	pro	2f/	.
=70	=70	=70	=70	=70	=70
2B-\	-ce-	2.d\	no-	2f/	.
2B-\	-de	.	.	2f/	-de
.	.	4e\	.	.	.
2A\	pro	[2f\	.	2a\	pro
=71	=71	=71	=71	=71	=71
1.G	no-	2f\]	.	1.cc	no-
.	.	1e	.	.	.
!	!	!	!	!LO:LB:g=original	!
=72	=72	=72	=72	=72	=72
2A\	-bis	1f	-bis	2a\	-bis
2A\	in-	.	.	2cc\	in-
2G/	-ter-	2r	.	2cc\	-ter-
!	!	!LO:LB:g=original	!	!	!
=73	=73	=73	=73	=73	=73
2A\	-ce-	2f\	in-	2cc\	-ce-
!LO:LB:g=original	!	!	!	!	!
2G/	-de	2e\	.	2cc\	-de
2F/	pro	2f\	-ter-	2cc\	pro
=74	=74	=74	=74	=74	=74
2.B-\	no-	2.d\	-ce-	2.f/	no-
4B-\	-bis	4e\	.	4g/	.
2A\	pro	2f\	-de	2a\	.
=75	=75	=75	=75	=75	=75
1.G	no-	2f\	pro	1.cc	.
.	.	2f\	no-	.	.
.	.	2e\	.	.	.
=76	=76	=76	=76	=76	=76
0A;	-bis.	0f;	-bis.	0cc;	-bis.
==	==	==	==	==	==
*-	*-	*-	*-	*-	*-
!!!system-decoration: [(s1,s2,s3)]
!!!ENC: Marta Lawrence
!!!END: 2021-02-14
!!!ENC: Andrzej Kubiczek
!!!END: 2021-02-09
!!!YEC: Copyright 2022 Narodowy Instytut Fryderyka Chopina (https://polishscores.org)
!!!YEM: License CC-BY-4.0 (https://creativecommons.org/licenses/by/4.0)
